<?xml version="1.0" encoding="UTF-8"?>
<map version="1.10" tiledversion="1.11.2" orientation="orthogonal" renderorder="right-down" width="54" height="50" tilewidth="16" tileheight="16" infinite="0" nextlayerid="5" nextobjectid="13">
 <tileset firstgid="1" source="dungeon.tsx"/>
 <imagelayer id="3" name="Background" repeatx="1" repeaty="1">
  <image source="../../assets/graphics/tilesets/dungeon_bg.png" width="432" height="288"/>
 </imagelayer>
 <layer id="1" name="Solid" width="54" height="50">
  <data encoding="csv">
8,9,10,8,9,10,8,9,10,8,9,10,8,9,10,8,9,10,8,9,10,8,9,10,8,9,10,8,9,10,8,9,10,8,9,10,8,9,10,8,9,10,8,9,10,8,9,8,9,8,9,8,9,10,
18,19,20,18,19,20,18,19,20,18,19,20,18,19,20,18,19,20,18,19,20,18,19,20,18,19,20,18,19,20,18,19,20,18,19,20,18,19,20,18,19,20,18,19,20,18,19,18,19,18,19,18,19,20,
28,29,30,28,29,30,28,29,30,28,29,30,28,29,30,28,29,30,28,29,30,28,29,30,28,29,30,28,29,30,28,29,30,28,29,30,28,29,30,28,29,30,28,29,30,28,29,28,29,28,29,28,29,30,
75,76,77,0,0,0,0,0,0,0,0,0,0,0,0,0,0,0,0,0,0,0,0,84,74,0,0,0,0,74,84,0,0,0,0,0,0,0,0,0,74,84,94,0,0,0,0,0,0,0,0,78,79,80,
85,86,87,0,0,0,0,0,0,0,0,0,0,0,0,0,0,0,0,0,0,0,0,94,84,0,0,0,0,84,94,0,0,0,74,74,0,0,0,74,84,94,0,0,0,0,0,0,0,0,0,88,89,90,
95,96,97,74,0,0,0,0,0,0,0,0,0,0,0,0,0,0,0,0,0,0,0,94,94,74,0,0,74,94,94,0,0,74,84,84,74,0,74,84,94,0,0,0,0,0,0,0,0,0,0,98,99,100,
75,76,77,84,74,0,0,0,0,0,0,0,0,0,0,0,0,0,0,0,0,0,0,94,0,84,74,74,84,0,94,0,74,84,94,94,84,74,84,94,0,0,0,0,0,0,0,0,0,0,0,78,79,80,
85,86,87,94,84,74,0,0,0,0,0,0,0,0,0,74,74,0,0,0,0,0,0,94,74,94,84,84,94,74,94,74,84,94,0,0,94,84,94,0,0,0,0,0,0,0,0,0,0,0,0,88,89,90,
95,96,97,0,94,84,74,0,0,0,0,0,0,0,74,84,84,74,0,0,0,74,74,94,84,0,94,94,0,84,94,84,94,0,0,0,0,94,0,0,0,0,0,0,0,0,0,0,0,0,0,98,99,100,
75,76,77,0,0,94,84,74,0,0,0,0,0,74,84,94,94,84,0,0,74,84,84,94,94,74,0,0,74,94,94,94,0,0,0,0,0,0,0,0,0,0,0,0,0,0,0,0,0,0,0,0,0,65,
85,86,87,0,0,0,94,84,74,0,0,0,74,84,94,0,0,94,74,74,84,94,94,94,0,84,0,0,84,0,94,0,0,0,0,0,0,0,0,0,0,0,0,0,0,0,0,0,0,0,0,0,0,65,
95,96,97,0,0,0,0,94,84,74,74,74,84,94,0,0,0,0,84,84,94,0,0,94,0,94,74,74,94,0,94,0,0,0,0,0,0,0,0,0,0,0,0,0,0,0,0,0,0,0,0,0,0,65,
75,76,77,0,0,0,0,0,94,84,84,84,94,0,0,0,0,0,94,94,0,0,0,94,74,0,84,84,0,74,94,0,0,0,0,0,0,0,0,0,0,0,0,0,74,74,0,0,0,0,0,78,79,80,
85,86,87,0,0,0,0,0,0,94,94,94,0,0,0,0,0,0,0,0,0,0,0,94,84,74,94,94,74,84,94,0,0,0,0,0,0,0,0,0,0,0,0,0,84,84,0,0,0,0,0,88,89,90,
95,96,97,0,0,0,0,0,0,0,0,0,0,0,0,0,0,0,0,0,0,0,0,94,94,84,0,0,84,94,94,0,0,0,0,0,0,0,0,0,0,0,0,0,94,94,0,0,0,0,0,98,99,100,
75,76,77,0,0,0,0,0,0,0,0,0,0,0,0,0,0,0,0,0,0,0,0,0,0,0,0,0,0,0,0,0,0,0,0,0,0,0,0,0,0,0,0,0,74,74,0,0,0,0,0,78,79,80,
85,86,87,0,0,0,0,0,0,0,0,0,0,0,0,0,0,0,0,0,0,0,0,0,0,0,0,0,0,0,0,0,0,0,0,0,0,0,0,0,0,0,0,0,84,84,0,0,0,0,104,88,89,90,
95,96,97,0,0,0,0,0,0,0,0,0,0,0,0,0,0,0,0,0,0,0,0,0,0,0,0,0,0,0,0,0,0,0,0,0,0,0,0,0,0,0,0,0,94,94,0,0,0,0,0,98,99,100,
75,76,77,0,0,0,0,0,0,0,0,0,0,0,0,0,0,0,0,0,0,0,0,0,0,0,0,0,0,0,0,0,0,0,0,0,0,0,0,0,0,0,0,0,74,74,0,0,0,0,0,78,79,80,
85,86,87,0,0,0,0,0,0,0,0,0,0,0,0,0,0,0,0,0,0,0,0,74,74,74,74,74,74,74,74,0,0,0,0,0,0,0,0,0,0,0,0,0,84,84,104,0,0,0,0,88,89,90,
95,96,97,0,0,0,0,102,102,102,102,102,102,102,102,102,102,102,102,102,102,102,102,94,84,84,0,84,0,84,94,102,102,102,102,0,0,0,0,0,0,0,0,0,94,94,0,0,0,0,0,98,99,100,
75,76,77,0,0,0,0,0,0,0,0,0,0,0,0,0,0,0,0,0,0,0,0,94,94,94,0,94,0,94,94,0,0,0,0,0,0,0,0,0,0,0,0,0,74,74,0,0,0,0,0,78,79,80,
85,86,87,104,104,0,0,0,0,0,0,0,0,0,0,0,0,0,0,0,0,0,0,94,0,0,74,74,0,0,94,0,0,0,0,0,0,0,0,0,0,0,0,0,84,84,0,0,0,0,0,88,89,90,
95,96,97,0,0,0,0,0,0,0,0,0,0,0,0,0,0,0,0,0,0,0,0,94,0,74,84,84,74,0,94,0,0,0,0,0,0,0,0,0,0,0,0,0,94,94,0,0,0,104,0,98,99,100,
75,76,77,0,0,0,0,0,0,0,0,0,0,0,0,0,0,0,0,0,0,0,0,94,74,84,94,94,84,74,94,0,0,0,0,0,0,0,0,0,0,0,0,0,74,74,0,0,0,0,0,78,79,80,
85,86,87,0,0,0,74,74,0,0,0,0,74,74,0,0,0,0,0,0,0,0,0,94,84,94,0,0,94,84,94,0,0,0,0,0,0,0,0,0,0,0,0,0,84,84,0,0,0,0,0,88,89,90,
95,96,97,0,0,0,84,84,0,0,0,0,84,84,0,0,0,0,0,0,0,0,0,94,94,0,0,0,0,94,94,0,0,0,0,0,0,0,0,0,0,0,0,0,94,94,0,0,0,0,0,98,99,100,
75,76,77,0,0,0,94,94,0,0,0,0,94,94,0,0,0,0,0,0,0,0,0,94,0,74,0,0,74,0,94,0,0,0,0,0,0,0,0,0,0,0,0,0,74,74,0,0,0,0,0,78,79,80,
85,86,87,0,0,0,0,0,0,0,0,0,0,0,0,0,74,74,0,0,0,0,0,94,0,84,0,0,84,0,94,0,0,0,0,0,0,0,0,0,0,0,0,0,84,84,104,0,0,0,0,88,89,90,
95,96,97,0,0,0,0,0,0,0,0,0,0,0,0,0,84,84,0,0,0,0,0,94,0,94,74,74,94,0,94,0,0,0,0,0,0,0,0,0,0,0,0,0,94,94,0,0,0,0,0,98,99,100,
65,0,0,0,0,0,0,0,0,0,0,0,0,0,0,0,94,94,0,0,0,0,0,94,74,0,84,84,0,74,94,0,0,0,0,72,72,72,72,72,72,72,72,72,74,74,0,0,0,0,0,78,79,80,
65,0,0,0,0,0,0,0,0,0,0,0,0,0,0,0,0,0,0,0,0,0,0,94,84,0,94,94,0,84,94,0,0,0,0,92,92,92,92,92,92,92,92,92,94,84,0,0,0,0,104,88,89,90,
65,0,0,0,0,0,0,0,0,0,0,0,74,74,0,0,0,0,0,0,0,0,0,94,94,0,0,0,0,94,94,0,0,0,0,0,0,0,0,0,0,0,0,0,94,94,0,0,0,0,0,98,99,100,
75,76,77,0,0,0,0,0,0,0,0,0,84,84,0,0,0,0,0,0,0,0,0,94,0,74,0,0,74,0,94,0,0,0,0,0,0,0,0,0,0,0,0,0,74,74,0,0,0,0,0,78,79,80,
85,86,87,0,0,0,0,0,0,0,0,0,94,94,0,0,0,0,0,0,0,0,0,94,74,84,0,0,84,74,94,0,0,0,0,0,0,0,0,0,0,0,0,0,84,84,104,0,0,0,0,88,89,90,
95,96,97,0,0,0,0,0,0,0,0,0,0,0,0,0,0,0,0,0,0,0,0,94,84,94,0,0,94,84,94,0,0,0,0,0,0,0,0,0,0,0,0,0,94,94,0,0,0,0,0,98,99,100,
75,76,77,0,0,0,0,0,0,0,0,0,0,0,0,0,74,74,0,0,0,0,0,94,94,0,0,0,0,94,94,0,0,0,0,0,0,0,0,0,0,0,0,0,74,74,0,0,0,0,0,78,79,80,
85,86,87,0,0,0,0,0,0,0,0,0,0,0,0,0,84,84,0,0,0,0,0,94,0,74,0,0,74,0,94,0,0,0,0,0,0,0,0,0,0,0,0,0,84,84,0,0,0,0,104,88,89,90,
95,96,97,0,0,0,0,0,0,0,0,0,0,0,0,0,94,94,0,0,0,0,0,94,0,84,0,0,84,0,94,0,0,0,0,0,0,0,0,0,0,0,0,0,94,94,0,0,0,0,0,98,99,100,
75,76,77,0,0,0,0,0,0,0,0,0,0,0,0,0,0,0,0,0,0,0,0,94,0,94,0,0,94,0,94,0,0,0,0,0,0,0,0,0,0,0,0,0,74,74,0,0,0,0,0,78,79,80,
85,86,87,0,0,0,0,0,0,0,0,0,0,0,0,0,0,0,0,0,74,74,0,94,0,0,74,74,0,0,94,72,72,72,72,72,72,0,0,72,72,72,72,72,84,84,104,0,0,0,0,88,89,90,
95,96,97,0,0,0,0,0,0,0,0,0,0,0,0,0,0,0,0,0,84,84,0,94,74,0,84,84,0,74,94,92,92,92,92,92,92,0,0,92,92,92,92,92,94,94,0,0,0,0,0,98,99,100,
75,76,77,0,0,0,0,0,0,0,0,0,0,0,0,0,0,0,0,0,94,94,0,94,84,0,94,94,0,84,94,0,0,0,0,0,0,0,0,0,0,0,0,0,74,74,0,0,0,0,0,78,79,80,
85,86,87,0,0,0,0,0,0,0,0,0,0,0,0,0,0,0,0,0,0,0,0,94,94,0,0,0,0,94,94,0,0,0,0,0,0,0,0,0,0,0,0,0,84,84,0,0,0,0,0,88,89,90,
95,96,97,0,0,0,0,0,0,0,0,0,0,0,0,0,74,74,0,0,0,0,0,94,0,74,0,0,74,0,94,0,0,0,0,0,0,0,0,0,0,0,0,0,94,94,0,0,0,0,104,98,99,100,
75,76,77,0,0,0,0,0,0,0,0,0,0,0,0,0,84,84,0,0,0,0,0,94,74,84,0,0,84,74,94,0,0,0,0,0,0,0,0,0,0,0,0,0,0,0,0,0,0,0,0,78,79,80,
85,86,87,0,0,0,0,0,0,0,0,0,0,0,0,0,94,94,0,0,0,0,0,94,84,94,0,0,94,84,94,0,0,0,0,0,0,0,0,0,0,0,0,0,0,0,0,0,0,0,0,88,89,90,
95,96,97,0,0,0,0,0,0,0,0,0,0,0,0,0,0,0,0,0,0,0,0,94,94,0,0,0,0,94,94,0,0,0,0,0,0,0,0,0,0,0,0,0,0,0,0,0,0,0,0,98,99,100,
78,79,80,79,80,78,79,80,79,80,79,80,79,80,79,80,79,80,78,79,80,79,80,78,79,80,78,79,80,78,79,80,79,80,79,80,79,80,78,79,80,78,79,80,78,79,80,78,79,80,78,78,79,80,
88,89,90,89,90,88,89,90,89,90,89,90,89,90,89,90,89,90,88,89,90,89,90,88,89,90,88,89,90,88,89,90,89,90,89,90,89,90,88,89,90,88,89,90,88,89,90,88,89,90,88,88,89,90
</data>
 </layer>
 <objectgroup id="4" name="Enemy">
  <object id="3" name="Skullwolf" x="97" y="736"/>
  <object id="5" name="Skullwolf" x="198" y="734"/>
  <object id="6" name="Skullwolf" x="541" y="738"/>
  <object id="7" name="Skullwolf" x="627" y="738"/>
  <object id="8" name="Skullwolf" x="763" y="742"/>
  <object id="9" name="Skullwolf" x="542" y="614"/>
  <object id="10" name="Skullwolf" x="601" y="449"/>
  <object id="11" name="Skullwolf" x="526" y="299"/>
  <object id="12" name="BringerOfDeath" x="283" y="288"/>
 </objectgroup>
 <objectgroup id="2" name="Object Layer 1">
  <object id="1" name="P" x="26" y="502.667"/>
  <object id="2" name="F" x="837.333" y="172.667"/>
 </objectgroup>
</map>
