<?xml version="1.0" encoding="UTF-8"?>
<map version="1.10" tiledversion="1.11.2" orientation="orthogonal" renderorder="right-down" width="35" height="80" tilewidth="16" tileheight="16" infinite="0" nextlayerid="4" nextobjectid="3">
 <tileset firstgid="1" source="dungeon.tsx"/>
 <tileset firstgid="141" source="snow.tsx"/>
 <imagelayer id="3" name="Background" repeatx="1" repeaty="1">
  <image source="../../assets/graphics/tilesets/dungeon_bg.png" width="432" height="288"/>
 </imagelayer>
 <layer id="1" name="Solid" width="35" height="80">
  <data encoding="csv">
334,334,334,334,334,334,334,334,334,334,334,334,334,334,334,334,334,334,334,334,334,334,334,334,334,334,334,334,334,334,334,334,334,334,334,
84,0,0,0,0,0,0,0,0,0,0,0,0,0,0,0,0,0,0,0,0,0,0,0,0,0,0,0,0,0,0,0,0,0,65,
84,0,0,0,0,0,0,0,0,0,0,0,0,0,0,0,0,0,0,0,0,0,0,0,0,0,0,0,0,0,0,0,0,0,65,
84,0,0,0,0,0,0,0,0,0,0,0,0,0,0,0,0,0,0,0,0,0,0,0,0,0,0,0,0,0,0,0,0,0,65,
84,0,0,0,0,0,0,0,0,0,0,0,0,0,0,0,0,0,0,0,0,0,0,0,0,0,0,0,0,0,0,0,0,74,74,
84,0,0,0,0,0,0,0,0,0,0,0,0,0,0,0,0,0,0,0,0,0,0,0,0,0,0,0,74,74,74,74,74,84,84,
84,0,0,0,0,0,0,0,0,0,0,0,0,0,0,0,0,0,0,0,74,74,74,74,0,74,74,74,84,84,84,84,84,84,84,
84,0,0,0,0,0,0,0,0,0,0,0,0,0,0,0,0,0,0,0,94,84,84,94,0,94,94,94,84,84,84,84,84,84,84,
84,0,0,0,0,0,0,0,0,0,0,0,0,0,0,0,0,0,0,0,0,94,94,0,0,0,0,0,94,94,94,84,84,84,84,
84,0,0,0,0,0,0,0,0,0,0,0,0,0,0,0,0,0,0,0,0,0,0,0,0,0,0,0,0,0,0,94,84,84,84,
84,0,0,0,0,0,0,0,0,0,0,0,74,74,74,74,0,0,0,0,0,0,0,0,0,0,0,0,0,0,0,0,94,94,84,
84,0,0,0,0,0,0,0,0,0,0,0,94,84,84,94,0,0,0,0,0,0,0,0,0,0,0,0,0,0,0,0,0,0,84,
84,0,0,0,0,0,0,0,0,0,0,0,0,94,94,0,0,0,0,0,0,0,0,0,0,0,0,0,0,0,0,0,0,0,84,
84,0,0,0,74,74,74,74,0,0,0,0,0,0,0,0,0,0,0,0,0,0,0,0,0,0,0,0,0,0,0,0,0,0,84,
84,0,0,0,94,84,84,94,0,0,0,0,0,0,0,0,0,0,0,0,0,0,0,0,0,0,0,0,0,0,0,0,0,0,84,
84,0,0,0,0,94,94,0,0,0,0,0,0,0,0,0,0,0,0,0,0,0,0,0,0,0,0,0,0,0,0,0,0,0,84,
84,0,0,0,0,0,0,0,0,0,0,0,0,0,0,0,0,0,0,0,0,0,0,0,0,0,0,0,0,0,0,0,0,0,84,
84,74,0,0,0,0,0,0,0,0,0,0,0,0,0,0,0,0,0,0,0,0,0,0,0,0,0,0,0,0,0,0,0,0,84,
84,84,0,0,0,0,0,0,0,0,0,0,0,0,0,0,0,0,0,0,0,0,0,0,0,0,0,0,0,0,0,0,0,0,84,
84,84,0,0,0,0,0,0,0,0,0,0,0,0,0,0,0,0,0,0,0,0,0,0,0,0,0,0,0,0,0,0,0,0,84,
84,84,74,74,74,74,74,0,0,0,0,0,0,0,0,0,0,0,0,0,0,0,0,0,0,0,0,0,0,0,0,0,0,0,84,
84,84,84,84,84,84,84,74,74,74,74,0,0,0,0,0,0,0,0,0,0,0,0,0,0,0,0,0,0,0,0,0,0,0,84,
84,84,84,84,84,84,84,84,84,84,84,74,74,74,74,74,74,74,74,74,74,74,0,0,0,0,0,0,0,0,0,0,0,0,84,
84,84,84,84,84,84,84,84,84,84,84,84,84,84,84,84,84,84,84,84,84,84,74,0,0,0,0,0,0,0,0,0,0,0,84,
84,84,84,84,84,84,84,84,84,84,84,84,84,84,84,84,84,84,84,84,84,94,94,0,0,0,0,0,0,0,0,0,0,0,84,
84,84,84,84,84,84,84,84,84,84,84,84,84,84,84,84,84,84,84,94,94,94,0,0,0,0,0,0,0,0,0,0,0,0,84,
84,84,84,84,84,84,84,84,84,84,84,84,84,84,94,94,94,94,94,94,0,0,0,0,0,0,0,0,0,0,0,0,0,0,84,
84,84,84,84,84,84,84,84,84,84,84,94,94,94,94,0,0,0,0,0,0,0,0,0,0,74,74,74,74,0,0,0,0,0,84,
84,84,84,84,84,84,84,84,94,94,94,94,0,0,0,0,0,0,0,0,0,0,0,0,0,94,84,84,94,0,0,0,0,0,84,
84,84,84,84,84,84,94,94,94,0,0,0,0,0,0,0,0,0,0,0,0,0,0,0,0,0,94,94,0,0,0,0,0,0,84,
84,84,84,84,84,94,94,0,0,0,0,0,0,0,0,0,0,0,0,0,0,0,0,0,0,0,0,0,0,0,0,0,0,0,84,
84,84,84,84,94,94,0,0,0,0,0,0,0,0,0,0,0,0,0,0,0,0,0,0,0,0,0,0,0,0,0,0,0,0,84,
84,94,94,94,0,0,0,0,0,0,0,0,0,0,0,0,0,0,0,0,0,0,0,0,0,0,0,0,0,0,0,0,74,74,84,
94,94,0,0,0,0,0,0,0,0,0,0,0,0,0,0,0,0,0,0,0,0,0,0,0,0,0,0,0,0,0,74,84,84,84,
84,0,0,0,0,0,0,0,0,0,0,0,0,0,0,0,0,0,0,0,0,0,0,0,0,0,0,0,0,0,74,84,84,84,84,
84,0,0,0,0,0,0,0,0,0,0,0,0,0,0,0,0,0,0,0,0,0,0,0,0,0,0,0,74,74,84,84,84,84,84,
84,0,0,0,0,0,0,0,0,0,0,0,0,0,0,0,0,0,0,0,0,0,0,0,0,0,0,74,84,84,84,84,84,84,84,
84,0,0,0,0,0,0,0,0,0,0,0,0,0,0,0,0,0,0,0,0,0,0,0,0,74,74,84,84,84,84,84,84,84,84,
84,0,0,0,0,0,0,0,0,0,0,0,0,0,0,0,0,0,0,74,74,74,74,74,74,84,84,84,84,84,84,84,84,84,84,
84,0,0,0,0,0,0,0,0,0,0,0,0,0,74,74,74,74,74,84,84,84,84,84,84,84,84,84,84,84,84,84,84,84,84,
84,0,0,0,0,0,0,0,0,0,0,74,74,74,84,84,84,84,84,84,84,84,84,84,84,84,84,84,84,84,84,84,84,84,84,
84,0,0,0,0,0,0,0,0,0,0,94,94,84,84,84,84,84,84,84,84,84,84,84,84,84,84,84,84,84,84,84,84,84,84,
84,0,0,0,0,0,0,0,74,74,0,0,0,94,94,94,84,84,84,84,84,84,84,84,84,84,84,84,84,84,84,84,84,84,84,
84,0,0,0,0,0,0,0,94,94,0,0,0,0,0,0,94,84,84,84,84,84,84,84,84,84,84,84,84,84,84,84,84,84,84,
84,0,0,0,0,0,0,0,0,0,0,0,0,0,0,0,0,94,84,84,84,84,84,84,84,84,84,84,84,84,84,84,84,84,84,
84,0,0,0,0,0,0,0,0,0,0,0,0,0,0,0,0,0,94,94,84,84,84,84,84,84,84,84,84,84,84,84,84,84,84,
84,0,0,0,0,74,74,0,0,0,0,0,0,0,0,0,0,0,0,0,94,94,84,84,84,84,84,84,84,84,84,84,84,84,84,
84,0,0,0,0,84,84,0,0,0,0,0,0,0,0,0,0,0,0,0,0,0,94,94,84,84,84,84,84,84,84,84,84,84,84,
84,0,0,0,0,94,94,0,0,0,0,0,0,0,0,0,0,0,0,0,0,0,0,0,94,94,84,84,84,84,84,84,84,84,84,
84,74,0,0,0,0,0,0,0,0,0,0,0,0,0,0,0,0,0,0,0,0,0,0,0,0,94,84,84,84,84,84,84,84,84,
84,84,0,0,0,0,0,0,0,0,0,0,0,0,0,0,0,0,0,0,0,0,0,0,0,0,0,94,94,84,84,84,84,84,84,
84,84,0,0,0,0,0,0,0,0,0,0,0,0,0,0,0,0,0,0,0,0,0,0,0,0,0,0,0,94,94,84,84,84,84,
84,84,74,0,0,0,0,0,0,0,0,0,0,0,0,0,0,0,0,0,0,0,0,0,0,0,0,0,0,0,0,94,84,84,84,
84,84,84,0,0,0,0,0,0,0,0,0,0,0,0,0,0,0,0,0,0,0,0,0,0,0,0,0,0,0,0,0,94,84,84,
84,84,84,74,74,74,74,74,74,0,0,0,0,0,0,0,0,0,0,0,0,0,0,0,0,0,0,0,0,0,0,0,0,94,84,
84,84,84,84,84,84,84,84,84,74,0,0,0,0,0,0,0,0,0,0,0,0,0,0,0,0,0,0,0,0,0,0,0,0,84,
84,84,84,84,84,84,84,84,84,84,74,74,74,0,0,0,0,0,0,0,0,0,0,0,0,0,0,0,0,0,0,0,0,0,84,
84,84,84,84,84,84,84,84,84,84,84,84,84,74,0,0,0,0,0,0,0,0,0,0,0,0,0,0,0,0,0,0,0,0,84,
84,84,84,84,84,84,84,84,84,84,84,84,84,84,0,0,0,0,0,0,0,0,0,0,0,0,0,0,0,0,0,0,0,0,84,
84,84,84,84,84,84,84,84,84,84,84,84,84,84,0,0,0,0,0,0,0,0,0,0,0,0,0,0,0,0,0,0,0,0,84,
84,84,84,84,84,84,84,84,84,84,84,84,84,84,0,0,0,0,74,74,74,74,0,0,0,0,0,0,0,0,0,0,0,0,84,
84,84,84,84,84,84,84,84,84,84,84,84,84,84,0,0,74,74,84,84,84,84,74,0,0,0,0,0,0,0,0,0,0,0,84,
84,84,84,84,84,84,84,84,84,84,84,84,84,84,0,0,84,84,84,84,84,84,84,74,0,0,0,0,0,0,0,0,0,0,84,
84,84,84,84,94,84,84,84,84,84,84,84,94,84,0,0,84,84,84,84,84,84,84,84,74,0,0,0,0,0,0,0,0,0,84,
84,84,84,94,0,94,84,84,84,84,84,94,0,94,84,0,84,84,84,84,84,84,84,84,84,0,0,0,0,0,0,0,0,0,84,
84,84,94,0,0,0,94,84,84,84,94,0,0,0,94,84,84,84,94,94,84,84,84,84,84,74,0,0,0,0,0,0,0,0,84,
84,94,0,0,0,0,0,84,84,84,0,0,0,0,0,94,84,84,0,0,94,94,84,84,84,84,0,0,0,0,0,0,0,0,84,
94,0,0,0,0,0,0,94,94,94,0,0,0,0,0,0,94,94,0,0,0,0,94,94,94,94,0,0,0,0,0,0,0,0,84,
65,0,0,0,0,0,0,78,79,80,78,79,80,78,79,80,78,79,80,78,79,80,78,79,78,78,79,80,0,0,0,0,0,0,84,
65,0,0,0,0,0,0,98,99,100,98,99,100,98,99,100,98,99,100,98,99,100,98,99,100,98,99,100,0,0,0,0,0,0,84,
65,0,0,0,0,0,0,0,0,0,0,0,0,0,0,0,0,0,0,0,0,0,0,0,0,0,0,0,0,0,0,0,0,0,84,
65,0,0,0,0,0,0,0,0,0,0,0,0,0,0,0,0,0,0,0,0,0,0,0,0,0,0,0,0,0,0,75,78,79,84,
65,0,0,0,0,0,0,0,0,0,0,0,0,0,0,0,0,0,0,0,0,0,0,0,0,0,0,0,0,0,0,94,109,109,109,
65,0,0,0,0,0,0,0,0,0,0,0,0,0,0,0,0,0,0,0,0,0,0,0,0,0,0,0,74,0,0,0,94,109,109,
65,0,0,0,0,0,0,0,0,0,0,0,0,0,0,0,0,0,0,0,0,0,0,0,0,0,0,74,84,0,0,0,0,94,109,
65,0,0,0,0,0,0,0,0,0,0,0,0,0,0,0,0,0,0,0,0,0,0,0,0,0,0,84,84,0,0,0,0,0,109,
65,0,0,0,0,0,0,0,0,0,0,0,0,0,0,0,0,0,0,0,0,0,0,0,0,104,0,94,94,0,0,0,0,0,94,
78,79,80,78,79,80,78,79,80,78,78,78,78,78,78,78,78,78,78,78,78,78,78,78,78,78,78,78,78,78,78,78,78,79,80,
118,119,120,118,119,120,118,119,120,118,119,120,118,119,120,118,119,120,118,119,120,118,119,120,118,119,120,118,119,120,118,119,120,118,119,
128,129,130,128,129,130,128,129,130,128,129,130,128,129,130,128,129,130,128,129,130,128,129,130,128,129,130,128,129,130,128,129,130,128,129
</data>
 </layer>
 <objectgroup id="2" name="Object Layer 1">
  <object id="1" name="P" x="28" y="1207.5"/>
  <object id="2" name="F" x="537.143" y="45.7143"/>
 </objectgroup>
</map>
